icons/sun.svg

<svg width="24" height="24" viewBox="0 0 24 24" fill="none" xmlns="http://www.w3.org/2000/svg">
<path fill-rule="evenodd" clip-rule="evenodd" d="M12 1C12.5523 1 13 1.44772 13 2V3C13 3.55228 12.5523 4 12 4C11.4477 4 11 3.55228 11 3V2C11 1.44772 11.4477 1 12 1ZM4.22183 4.22183C4.61235 3.8313 5.24551 3.8313 5.63604 4.22183L6.34315 4.92893C6.73367 5.31946 6.73367 5.95262 6.34315 6.34315C5.95262 6.73367 5.31946 6.73367 4.92893 6.34315L4.22183 5.63604C3.8313 5.24551 3.8313 4.61235 4.22183 4.22183ZM19.7782 4.22183C20.1687 4.61235 20.1687 5.24552 19.7782 5.63604L19.0711 6.34315C18.6805 6.73367 18.0474 6.73367 17.6569 6.34314C17.2663 5.95262 17.2663 5.31946 17.6569 4.92893L18.364 4.22182C18.7545 3.8313 19.3877 3.8313 19.7782 4.22183ZM12 8C9.79086 8 8 9.79086 8 12C8 14.2091 9.79086 16 12 16C14.2091 16 16 14.2091 16 12C16 9.79086 14.2091 8 12 8ZM6 12C6 8.68629 8.68629 6 12 6C15.3137 6 18 8.68629 18 12C18 15.3137 15.3137 18 12 18C8.68629 18 6 15.3137 6 12ZM1 12C1 11.4477 1.44772 11 2 11H3C3.55228 11 4 11.4477 4 12C4 12.5523 3.55228 13 3 13H2C1.44772 13 1 12.5523 1 12ZM20 12C20 11.4477 20.4477 11 21 11H22C22.5523 11 23 11.4477 23 12C23 12.5523 22.5523 13 22 13H21C20.4477 13 20 12.5523 20 12ZM6.34315 17.6569C6.73367 18.0474 6.73367 18.6805 6.34315 19.0711L5.63604 19.7782C5.24552 20.1687 4.61235 20.1687 4.22183 19.7782C3.8313 19.3877 3.8313 18.7545 4.22183 18.364L4.92893 17.6569C5.31946 17.2663 5.95262 17.2663 6.34315 17.6569ZM17.6569 17.6569C18.0474 17.2663 18.6805 17.2663 19.0711 17.6569L19.7782 18.364C20.1687 18.7545 20.1687 19.3876 19.7782 19.7782C19.3876 20.1687 18.7545 20.1687 18.364 19.7782L17.6569 19.0711C17.2663 18.6805 17.2663 18.0474 17.6569 17.6569ZM12 20C12.5523 20 13 20.4477 13 21V22C13 22.5523 12.5523 23 12 23C11.4477 23 11 22.5523 11 22V21C11 20.4477 11.4477 20 12 20Z" fill="black"/>
</svg>

<svg
  width="24"
  height="24"
  viewBox="0 0 24 24"
  xmlns="http://www.w3.org/2000/svg"
>
  <path
    fill-rule="evenodd"
    clip-rule="evenodd"
    d="M12 1a1 1 0 0 1 1 1v1a1 1 0 1 1-2 0V2a1 1 0 0 1 1-1zM4.222 4.222a1 1 0 0 1 1.414 0l.707.707A1 1 0 0 1 4.93 6.343l-.707-.707a1 1 0 0 1 0-1.414zm15.556 0a1 1 0 0 1 0 1.414l-.707.707a1 1 0 1 1-1.414-1.414l.707-.707a1 1 0 0 1 1.414 0zM12 8a4 4 0 1 0 0 8 4 4 0 0 0 0-8zm-6 4a6 6 0 1 1 12 0 6 6 0 0 1-12 0zm-5 0a1 1 0 0 1 1-1h1a1 1 0 1 1 0 2H2a1 1 0 0 1-1-1zm19 0a1 1 0 0 1 1-1h1a1 1 0 1 1 0 2h-1a1 1 0 0 1-1-1zM6.343 17.657a1 1 0 0 1 0 1.414l-.707.707a1 1 0 0 1-1.414-1.414l.707-.707a1 1 0 0 1 1.414 0zm11.314 0a1 1 0 0 1 1.414 0l.707.707a1 1 0 0 1-1.414 1.414l-.707-.707a1 1 0 0 1 0-1.414zM12 20a1 1 0 0 1 1 1v1a1 1 0 1 1-2 0v-1a1 1 0 0 1 1-1z"
  />
</svg>
